src/assets/images/careers/projects.svg

<?xml version="1.0" encoding="utf-8"?>
<svg width="148" height="133" viewBox="0 0 148 133" fill="none" xmlns="http://www.w3.org/2000/svg">
<circle cx="96.8167" cy="83.8459" r="44.4835" transform="rotate(-86.4507 96.8167 83.8459)" stroke="#E9ECEE" stroke-width="3" stroke-linecap="round" stroke-linejoin="round" stroke-dasharray="5 10"/>
<path d="M74.6444 8.27579C75.882 7.56126 77.4068 7.56126 78.6444 8.27579L126.248 35.7595C127.485 36.4741 128.248 37.7946 128.248 39.2236V94.1911C128.248 95.6202 127.485 96.9407 126.248 97.6552L78.6444 125.139C77.4068 125.854 75.882 125.854 74.6444 125.139L27.0412 97.6552C25.8036 96.9407 25.0412 95.6202 25.0412 94.1911V39.2236C25.0412 37.7946 25.8036 36.4741 27.0412 35.7595L74.6444 8.27579Z" fill="url(#paint0_linear)"/>
<path d="M57.2814 127.366C42.3163 127.366 30.6019 99.4842 30.6019 63.887C30.6019 51.7923 32.0002 40.041 34.6253 29.9335C34.9197 28.7805 36.0972 28.0935 37.238 28.4002C38.3911 28.6946 39.078 29.8722 38.7713 31.0129C36.2322 40.777 34.8829 52.148 34.8829 63.887C34.8951 99.2879 46.4746 123.073 57.2814 123.073C64.1874 123.073 71.1179 113.566 75.3743 98.2575C75.6933 97.1167 76.8708 96.4544 78.0239 96.761C79.1647 97.0799 79.8393 98.2575 79.5204 99.4106C74.577 117.172 66.4812 127.366 57.2814 127.366ZM79.4345 92.4432C79.2996 92.4432 79.1647 92.431 79.0297 92.4064C77.8644 92.1856 77.1039 91.0571 77.3247 89.8918C78.8825 81.7469 79.6676 73.0009 79.6676 63.887C79.6676 51.4979 78.1833 39.5994 75.3743 29.4796C75.0554 28.3389 75.7301 27.149 76.8708 26.8424C77.9994 26.5234 79.2015 27.1981 79.5081 28.3389C82.4275 38.8267 83.9608 51.1176 83.9608 63.887C83.9608 73.2708 83.1512 82.2866 81.5443 90.7014C81.3481 91.7195 80.4526 92.4432 79.4345 92.4432ZM74.6751 22.7576C73.8165 22.7576 73.0192 22.2424 72.6757 21.4083C68.4438 10.7856 62.838 4.70145 57.2814 4.70145C51.786 4.70145 46.217 10.6875 42.0096 21.1262C41.5681 22.2302 40.3169 22.7576 39.2129 22.316C38.1089 21.8745 37.5815 20.6233 38.0231 19.5193C43.0032 7.19154 49.8356 0.408203 57.2814 0.408203C64.8007 0.408203 71.6821 7.30194 76.6623 19.8137C77.1039 20.9177 76.5642 22.1688 75.4602 22.5982C75.2026 22.7086 74.9327 22.7576 74.6751 22.7576Z" fill="url(#paint1_linear)"/>
<path d="M93.9826 103.348C91.4802 103.348 88.7571 103.139 85.8622 102.722C73.2523 100.907 58.3609 95.3133 43.9478 86.9967C33.0184 80.6917 23.2421 73.3074 15.6614 65.6408C14.8273 64.7945 14.8396 63.4452 15.6737 62.611C16.5201 61.7769 17.8694 61.7892 18.7035 62.6233C26.0143 70.02 35.484 77.159 46.0822 83.28C60.0536 91.3267 74.3931 96.724 86.4755 98.4658C97.7238 100.085 105.771 98.2696 108.543 93.4734C111.315 88.6772 108.862 80.8022 101.833 71.8722C94.277 62.2798 82.4399 52.5526 68.4807 44.4935C37.8146 26.7931 11.4418 24.9286 6.03228 34.2879C3.18647 39.219 5.82375 47.3393 13.2695 56.5514C14.0177 57.4714 13.8705 58.8207 12.9505 59.569C12.0306 60.3172 10.6813 60.17 9.93301 59.25C1.18704 48.4188 -1.52384 38.7774 2.31555 32.1412C9.79808 19.1879 39.8018 22.9782 70.6273 40.7768C85.0404 49.1057 97.319 59.201 105.206 69.2226C113.498 79.7595 116.001 89.1433 112.26 95.6323C109.328 100.698 102.962 103.348 93.9826 103.348Z" fill="url(#paint2_linear)"/>
<path d="M20.5433 103.348C11.5766 103.348 5.24709 100.711 2.30315 95.6206C-1.43811 89.1317 1.06424 79.7601 9.35634 69.211C17.2314 59.2016 29.5224 49.094 43.9354 40.7774C58.3485 32.4485 73.2399 26.8673 85.8498 25.0518C99.1221 23.1383 108.506 25.6529 112.247 32.1418C115.326 37.4777 114.222 44.7027 109.058 53.0561C108.077 54.6385 106.948 56.2699 105.697 57.9013C104.973 58.8459 103.624 59.0176 102.692 58.2939C101.747 57.5701 101.575 56.2208 102.299 55.2886C103.464 53.7676 104.507 52.2588 105.415 50.7991C109.634 43.9667 110.751 38.1033 108.543 34.2885C105.77 29.4923 97.736 27.6769 86.4754 29.296C74.393 31.0379 60.0535 36.4351 46.0943 44.4941C32.1351 52.5532 20.2857 62.2805 12.7419 71.8728C5.71321 80.815 3.25993 88.6901 6.03214 93.474C8.92702 98.491 17.4767 100.233 29.4733 98.2456C30.6386 98.0616 31.7426 98.8467 31.9388 100.012C32.1351 101.177 31.3378 102.281 30.1725 102.478C26.7011 103.066 23.4873 103.348 20.5433 103.348ZM37.8635 100.773C36.919 100.773 36.0481 100.135 35.7905 99.1779C35.4838 98.0371 36.1708 96.8595 37.3115 96.5529C43.3712 94.9337 49.7374 92.6031 56.2141 89.6346C57.2936 89.1317 58.5693 89.6101 59.0599 90.6895C59.5506 91.769 59.0845 93.0447 58.005 93.5353C51.3075 96.6142 44.7082 99.0307 38.4155 100.711C38.2315 100.748 38.0475 100.773 37.8635 100.773ZM66.8368 88.8127C66.0763 88.8127 65.3526 88.408 64.9601 87.7088C64.3835 86.6661 64.7638 85.3659 65.8065 84.7894C66.7019 84.2987 67.5974 83.7958 68.4805 83.2806C78.9683 77.2332 88.3521 70.1555 95.6384 62.8447C96.4725 62.0106 97.8341 61.9983 98.6682 62.8324C99.5146 63.6666 99.5146 65.0281 98.6805 65.8623C91.1366 73.4429 81.4339 80.7537 70.6272 86.9973C69.7072 87.5248 68.7872 88.04 67.8795 88.5429C67.5483 88.7269 67.1926 88.8127 66.8368 88.8127Z" fill="url(#paint3_linear)"/>
<path d="M57.2815 78.3007C49.3328 78.3007 42.8684 71.8363 42.8684 63.8877C42.8684 55.939 49.3328 49.4746 57.2815 49.4746C65.2301 49.4746 71.6945 55.939 71.6945 63.8877C71.6945 71.8363 65.2301 78.3007 57.2815 78.3007ZM57.2815 53.7679C51.7002 53.7679 47.1617 58.3064 47.1617 63.8877C47.1617 69.4689 51.7002 74.0075 57.2815 74.0075C62.8627 74.0075 67.4013 69.4689 67.4013 63.8877C67.4013 58.3064 62.8627 53.7679 57.2815 53.7679Z" fill="url(#paint4_linear)"/>
<path d="M116.28 113.275L116.28 121.154C116.28 121.823 116.637 122.442 117.217 122.777L124.048 126.722C124.629 127.057 125.343 127.057 125.923 126.722L132.755 122.777C133.335 122.442 133.692 121.823 133.692 121.154L133.692 113.264C133.692 112.594 133.335 111.976 132.755 111.641L125.924 107.697C125.344 107.361 124.628 107.362 124.048 107.698L117.215 111.652C116.636 111.987 116.28 112.606 116.28 113.275ZM131.176 114.286L131.176 120.144C131.176 120.545 130.962 120.916 130.615 121.117L125.549 124.049C125.2 124.251 124.771 124.251 124.422 124.05L119.346 121.117C118.998 120.916 118.784 120.545 118.784 120.143L118.784 114.287C118.784 113.885 118.998 113.513 119.346 113.312L124.422 110.38C124.771 110.178 125.2 110.179 125.549 110.38L130.615 113.312C130.962 113.513 131.176 113.884 131.176 114.286Z" fill="url(#paint5_linear)" stroke="url(#paint6_linear)" stroke-width="0.75" stroke-linejoin="round"/>
<path d="M127.772 96.1583C127.308 96.4262 127.022 96.9215 127.022 97.4574L127.022 104.802C127.022 105.338 127.308 105.834 127.772 106.101L134.135 109.774C134.599 110.042 135.171 110.042 135.635 109.774L141.998 106.101C142.462 105.834 142.748 105.338 142.748 104.802L142.748 97.4574C142.748 96.9215 142.462 96.4262 141.998 96.1583L135.635 92.4856C135.171 92.2177 134.599 92.2177 134.135 92.4856L127.772 96.1583Z" fill="url(#paint7_linear)"/>
<path d="M136.837 111.711C136.373 111.979 136.087 112.474 136.087 113.01L136.087 118.049C136.087 118.585 136.373 119.08 136.837 119.348L141.2 121.868C141.665 122.136 142.236 122.136 142.701 121.868L147.064 119.348C147.528 119.08 147.814 118.585 147.814 118.049L147.814 113.01C147.814 112.474 147.528 111.979 147.064 111.711L142.701 109.192C142.236 108.924 141.665 108.924 141.2 109.192L136.837 111.711Z" fill="url(#paint8_linear)"/>
<defs>
<linearGradient id="paint0_linear" x1="248.519" y1="37.7955" x2="42.2475" y2="7.14723" gradientUnits="userSpaceOnUse">
<stop stop-color="#5CDBDD" stop-opacity="0.03"/>
<stop offset="1" stop-color="#5CDBDD" stop-opacity="0.21"/>
</linearGradient>
<linearGradient id="paint1_linear" x1="113.953" y1="24.4258" x2="12.5186" y2="107.003" gradientUnits="userSpaceOnUse">
<stop stop-color="#1F3D56"/>
<stop offset="1" stop-color="#335878"/>
</linearGradient>
<linearGradient id="paint2_linear" x1="113.953" y1="24.4258" x2="12.5186" y2="107.003" gradientUnits="userSpaceOnUse">
<stop stop-color="#1F3D56"/>
<stop offset="1" stop-color="#335878"/>
</linearGradient>
<linearGradient id="paint3_linear" x1="113.953" y1="24.4258" x2="12.5186" y2="107.003" gradientUnits="userSpaceOnUse">
<stop stop-color="#1F3D56"/>
<stop offset="1" stop-color="#335878"/>
</linearGradient>
<linearGradient id="paint4_linear" x1="71.6945" y1="49.4746" x2="39.2313" y2="67.8766" gradientUnits="userSpaceOnUse">
<stop stop-color="#1F3D56"/>
<stop offset="1" stop-color="#335878"/>
</linearGradient>
<linearGradient id="paint5_linear" x1="116.655" y1="107.588" x2="129.776" y2="127.632" gradientUnits="userSpaceOnUse">
<stop stop-color="#1F3D56"/>
<stop offset="1" stop-color="#335878"/>
</linearGradient>
<linearGradient id="paint6_linear" x1="116.894" y1="105.883" x2="130.015" y2="125.927" gradientUnits="userSpaceOnUse">
<stop stop-color="#1F3D56"/>
<stop offset="1" stop-color="#335878"/>
</linearGradient>
<linearGradient id="paint7_linear" x1="127.022" y1="92.0527" x2="139.4" y2="110.967" gradientUnits="userSpaceOnUse">
<stop stop-color="#1F3D56"/>
<stop offset="1" stop-color="#335878"/>
</linearGradient>
<linearGradient id="paint8_linear" x1="136.087" y1="108.759" x2="145.321" y2="122.865" gradientUnits="userSpaceOnUse">
<stop stop-color="#1F3D56"/>
<stop offset="1" stop-color="#335878"/>
</linearGradient>
</defs>
</svg>

<svg width="148" height="133" fill="none" xmlns="http://www.w3.org/2000/svg"><circle cx="96.817" cy="83.846" r="44.483" transform="rotate(-86.45 96.817 83.846)" stroke="#E9ECEE" stroke-width="3" stroke-linecap="round" stroke-linejoin="round" stroke-dasharray="5 10"/><path d="M74.644 8.276a4 4 0 014 0l47.604 27.484c1.237.714 2 2.035 2 3.464V94.19c0 1.43-.763 2.75-2 3.464L78.644 125.14a3.998 3.998 0 01-4 0L27.041 97.655a4 4 0 01-2-3.464V39.224a4 4 0 012-3.464L74.644 8.276z" fill="url(#paint0_linear)"/><path d="M57.281 127.366c-14.965 0-26.68-27.882-26.68-63.479 0-12.095 1.4-23.846 4.024-33.954a2.13 2.13 0 012.613-1.533 2.13 2.13 0 011.533 2.613c-2.539 9.764-3.888 21.135-3.888 32.874.012 35.4 11.592 59.186 22.398 59.186 6.906 0 13.837-9.507 18.093-24.816a2.161 2.161 0 012.65-1.496 2.151 2.151 0 011.496 2.65c-4.943 17.761-13.039 27.955-22.239 27.955zm22.154-34.923a2.149 2.149 0 01-2.11-2.551c1.557-8.145 2.343-16.891 2.343-26.005 0-12.39-1.485-24.288-4.294-34.407a2.138 2.138 0 011.497-2.638 2.144 2.144 0 012.637 1.497c2.92 10.488 4.453 22.779 4.453 35.548 0 9.384-.81 18.4-2.417 26.814a2.152 2.152 0 01-2.11 1.742zm-4.76-69.685a2.163 2.163 0 01-2-1.35C68.445 10.786 62.839 4.701 57.282 4.701c-5.495 0-11.064 5.987-15.271 16.425a2.146 2.146 0 01-2.797 1.19 2.146 2.146 0 01-1.19-2.797C43.003 7.192 49.836.41 57.281.41c7.52 0 14.401 6.893 19.381 19.405a2.134 2.134 0 01-1.202 2.784c-.257.11-.527.16-.785.16z" fill="url(#paint1_linear)"/><path d="M93.983 103.348c-2.503 0-5.226-.209-8.12-.626-12.61-1.815-27.502-7.409-41.915-15.725-10.93-6.305-20.706-13.69-28.287-21.356a2.147 2.147 0 01.013-3.03 2.147 2.147 0 013.03.012c7.31 7.397 16.78 14.536 27.378 20.657 13.972 8.047 28.311 13.444 40.393 15.186 11.249 1.619 19.296-.196 22.068-4.993 2.772-4.796.319-12.67-6.71-21.6-7.556-9.593-19.393-19.32-33.352-27.38-30.666-17.7-57.04-19.564-62.449-10.205-2.846 4.931-.208 13.051 7.238 22.263a2.145 2.145 0 11-3.337 2.699C1.187 48.419-1.524 38.777 2.316 32.141c7.482-12.953 37.486-9.163 68.311 8.636C85.04 49.106 97.32 59.2 105.206 69.223c8.292 10.537 10.795 19.92 7.054 26.41-2.932 5.065-9.298 7.715-18.277 7.715z" fill="url(#paint2_linear)"/><path d="M20.543 103.348c-8.966 0-15.296-2.637-18.24-7.727-3.741-6.49-1.239-15.86 7.053-26.41 7.875-10.01 20.166-20.117 34.58-28.434C58.348 32.45 73.24 26.867 85.85 25.052c13.272-1.914 22.656.6 26.397 7.09 3.079 5.336 1.975 12.56-3.189 20.914a59.77 59.77 0 01-3.361 4.845 2.136 2.136 0 01-3.005.393 2.136 2.136 0 01-.393-3.005 56.497 56.497 0 003.116-4.49c4.219-6.832 5.336-12.696 3.128-16.51-2.773-4.797-10.807-6.612-22.068-4.993-12.082 1.742-26.421 7.14-40.38 15.198-13.96 8.06-25.81 17.787-33.353 27.379-7.029 8.942-9.482 16.817-6.71 21.601 2.895 5.017 11.445 6.759 23.441 4.772a2.157 2.157 0 012.466 1.766 2.15 2.15 0 01-1.767 2.466c-3.47.588-6.685.87-9.629.87zm17.32-2.575a2.157 2.157 0 01-2.072-1.595 2.15 2.15 0 011.52-2.625c6.06-1.62 12.426-3.95 18.903-6.918a2.135 2.135 0 012.846 1.054 2.145 2.145 0 01-1.055 2.846c-6.698 3.08-13.297 5.496-19.59 7.176a2.804 2.804 0 01-.551.062zm28.974-11.96a2.144 2.144 0 01-1.03-4.023c.895-.491 1.79-.994 2.674-1.51 10.487-6.047 19.871-13.124 27.157-20.435.834-.834 2.196-.847 3.03-.013.847.835.847 2.196.012 3.03-7.543 7.58-17.246 14.892-28.053 21.135-.92.528-1.84 1.043-2.748 1.546-.33.184-.686.27-1.042.27z" fill="url(#paint3_linear)"/><path d="M57.282 78.3c-7.95 0-14.414-6.464-14.414-14.412 0-7.949 6.465-14.413 14.413-14.413 7.95 0 14.414 6.464 14.414 14.413 0 7.948-6.465 14.413-14.413 14.413zm0-24.532c-5.582 0-10.12 4.538-10.12 10.12 0 5.58 4.538 10.12 10.12 10.12 5.58 0 10.12-4.54 10.12-10.12 0-5.582-4.54-10.12-10.12-10.12z" fill="url(#paint4_linear)"/><path d="M116.28 113.275v7.879c0 .669.357 1.288.937 1.623l6.831 3.945a1.875 1.875 0 001.875 0l6.832-3.945c.58-.335.937-.954.937-1.623v-7.89c0-.67-.357-1.288-.937-1.623l-6.831-3.944a1.872 1.872 0 00-1.876.001l-6.833 3.954a1.875 1.875 0 00-.935 1.623zm14.896 1.011v5.858c0 .401-.214.772-.561.973l-5.066 2.932a1.126 1.126 0 01-1.127.001l-5.076-2.933a1.124 1.124 0 01-.562-.974v-5.856c0-.402.214-.774.562-.975l5.076-2.932a1.126 1.126 0 011.127 0l5.066 2.932c.347.201.561.572.561.974z" fill="url(#paint5_linear)" stroke="url(#paint6_linear)" stroke-width=".75" stroke-linejoin="round"/><path d="M127.772 96.158a1.5 1.5 0 00-.75 1.3v7.344c0 .536.286 1.032.75 1.299l6.363 3.673a1.5 1.5 0 001.5 0l6.363-3.673c.464-.267.75-.763.75-1.299v-7.345a1.5 1.5 0 00-.75-1.299l-6.363-3.672a1.5 1.5 0 00-1.5 0l-6.363 3.672z" fill="url(#paint7_linear)"/><path d="M136.837 111.711a1.5 1.5 0 00-.75 1.299v5.039a1.5 1.5 0 00.75 1.299l4.363 2.52a1.502 1.502 0 001.501 0l4.363-2.52a1.5 1.5 0 00.75-1.299v-5.039a1.5 1.5 0 00-.75-1.299l-4.363-2.519a1.502 1.502 0 00-1.501 0l-4.363 2.519z" fill="url(#paint8_linear)"/><defs><linearGradient id="paint0_linear" x1="248.519" y1="37.795" x2="42.248" y2="7.147" gradientUnits="userSpaceOnUse"><stop stop-color="#5CDBDD" stop-opacity=".03"/><stop offset="1" stop-color="#5CDBDD" stop-opacity=".21"/></linearGradient><linearGradient id="paint1_linear" x1="113.953" y1="24.426" x2="12.519" y2="107.003" gradientUnits="userSpaceOnUse"><stop stop-color="#1F3D56"/><stop offset="1" stop-color="#335878"/></linearGradient><linearGradient id="paint2_linear" x1="113.953" y1="24.426" x2="12.519" y2="107.003" gradientUnits="userSpaceOnUse"><stop stop-color="#1F3D56"/><stop offset="1" stop-color="#335878"/></linearGradient><linearGradient id="paint3_linear" x1="113.953" y1="24.426" x2="12.519" y2="107.003" gradientUnits="userSpaceOnUse"><stop stop-color="#1F3D56"/><stop offset="1" stop-color="#335878"/></linearGradient><linearGradient id="paint4_linear" x1="71.695" y1="49.475" x2="39.231" y2="67.877" gradientUnits="userSpaceOnUse"><stop stop-color="#1F3D56"/><stop offset="1" stop-color="#335878"/></linearGradient><linearGradient id="paint5_linear" x1="116.655" y1="107.588" x2="129.776" y2="127.632" gradientUnits="userSpaceOnUse"><stop stop-color="#1F3D56"/><stop offset="1" stop-color="#335878"/></linearGradient><linearGradient id="paint6_linear" x1="116.894" y1="105.883" x2="130.015" y2="125.927" gradientUnits="userSpaceOnUse"><stop stop-color="#1F3D56"/><stop offset="1" stop-color="#335878"/></linearGradient><linearGradient id="paint7_linear" x1="127.022" y1="92.053" x2="139.4" y2="110.967" gradientUnits="userSpaceOnUse"><stop stop-color="#1F3D56"/><stop offset="1" stop-color="#335878"/></linearGradient><linearGradient id="paint8_linear" x1="136.087" y1="108.759" x2="145.321" y2="122.865" gradientUnits="userSpaceOnUse"><stop stop-color="#1F3D56"/><stop offset="1" stop-color="#335878"/></linearGradient></defs></svg>
